src/assets/expand.svg

<?xml version="1.0" encoding="utf-8"?><!-- Uploaded to: SVG Repo, www.svgrepo.com, Generator: SVG Repo Mixer Tools -->
<svg width="800px" height="800px" viewBox="0 0 24 24" fill="none" xmlns="http://www.w3.org/2000/svg">
<path d="M4 9V5.6C4 5.03995 4 4.75992 4.10899 4.54601C4.20487 4.35785 4.35785 4.20487 4.54601 4.109C4.75992 4 5.03995 4 5.6 4L9 4M4 15V18.4C4 18.9601 4 19.2401 4.10899 19.454C4.20487 19.6422 4.35785 19.7951 4.54601 19.891C4.75992 20 5.03995 20 5.6 20L9 20M15 4H18.4C18.9601 4 19.2401 4 19.454 4.10899C19.6422 4.20487 19.7951 4.35785 19.891 4.54601C20 4.75992 20 5.03995 20 5.6V9M20 15V18.4C20 18.9601 20 19.2401 19.891 19.454C19.7951 19.6422 19.6422 19.7951 19.454 19.891C19.2401 20 18.9601 20 18.4 20H15" stroke="currentColor" stroke-width="2" stroke-linecap="round" stroke-linejoin="round"/>
</svg>

<svg width="800" height="800" viewBox="0 0 24 24" fill="none" xmlns="http://www.w3.org/2000/svg"><path d="M4 9V5.6c0-.56 0-.84.109-1.054a1 1 0 01.437-.437C4.76 4 5.04 4 5.6 4H9M4 15v3.4c0 .56 0 .84.109 1.054a1 1 0 00.437.437C4.76 20 5.04 20 5.6 20H9m6-16h3.4c.56 0 .84 0 1.054.109a1 1 0 01.437.437C20 4.76 20 5.04 20 5.6V9m0 6v3.4c0 .56 0 .84-.109 1.054a1 1 0 01-.437.437C19.24 20 18.96 20 18.4 20H15" stroke="currentColor" stroke-width="2" stroke-linecap="round" stroke-linejoin="round"/></svg>
